public/Icons/location.svg

<svg width="13" height="13" viewBox="0 0 13 13" fill="none" xmlns="http://www.w3.org/2000/svg">
<path d="M6.5 12C6.5 12 2 8.7 2 5.4C2 2.65 4.25 1 6.5 1C8.75 1 11 2.65 11 5.4C11 8.7 6.5 12 6.5 12ZM6.5 7.05C6.94755 7.05 7.37678 6.87616 7.69324 6.56673C8.00971 6.25729 8.1875 5.83761 8.1875 5.4C8.1875 4.96239 8.00971 4.54271 7.69324 4.23327C7.37678 3.92384 6.94755 3.75 6.5 3.75C6.05245 3.75 5.62322 3.92384 5.30676 4.23327C4.99029 4.54271 4.8125 4.96239 4.8125 5.4C4.8125 5.83761 4.99029 6.25729 5.30676 6.56673C5.62322 6.87616 6.05245 7.05 6.5 7.05V7.05Z" stroke="#202020"/>
</svg>

<svg width="13" height="13" fill="none" xmlns="http://www.w3.org/2000/svg"><path d="M6.5 12S2 8.7 2 5.4C2 2.65 4.25 1 6.5 1S11 2.65 11 5.4C11 8.7 6.5 12 6.5 12Zm0-4.95c.448 0 .877-.174 1.193-.483.317-.31.495-.73.495-1.167 0-.438-.178-.857-.495-1.167A1.707 1.707 0 0 0 6.5 3.75c-.448 0-.877.174-1.193.483-.317.31-.495.73-.495 1.167 0 .438.178.857.495 1.167.316.31.745.483 1.193.483Z" stroke="#202020"/></svg>
